X: 140
T:Lad That Keeps The Cattle,The. HA.139
M:6/4
L:1/8
Q:1/4=350
S:Henry Atkinson's original MS,Hartburn,N'umberland,1694.
O:England
A:Hartburn,Northumberland
H:1/8
Z:vmp.Neil Brookes, Jan.2004
K:C
G3AG2e4c2|d2B2G2c2A2F2|G3AG2e4c2|d2B2G2c4A2|!
G3AG2e4c2|d2B2G2c2A2F2|G2A2B2A2B2c2|d2B2G2c4A2||!
G2g2d2e2d2e2|d2B2G2c2A2F2|G2g2d2e2d2e2|d2B2G2c4A2|!
G2g2d2e2d2e2|d2B2G2c2A2F2|G2A2B2A2B2c2|d2B2G2c4A2||!
d2B2G2d2B2G2|d2B2G2c2A2F2|d2B2G2d2B2G2|d2B2G2c4A2|!
d2B2G2d2B2G2|d2B2G2c2A2F2|G2A2B2A2B2c2|d2B2G2c4A2|]
